; generated by PrusaSlicer 2.3.0-rc2+win64 on 2021-02-03 at 23:37:54 UTC

; 

; external perimeters extrusion width = 0.45mm
; perimeters extrusion width = 0.45mm
; infill extrusion width = 0.45mm
; solid infill extrusion width = 0.45mm
; top infill extrusion width = 0.40mm
; support material extrusion width = 0.35mm
; first layer extrusion width = 0.42mm

M73 P0 R45
M73 Q0 S45
M201 X1000 Y1000 Z200 E5000 ; sets maximum accelerations, mm/sec^2
M203 X200 Y200 Z12 E120 ; sets maximum feedrates, mm/sec
M204 P1250 R1250 T1250 ; sets acceleration (P, T) and retract acceleration (R), mm/sec^2
M205 X8.00 Y8.00 Z0.40 E4.50 ; sets the jerk limits, mm/sec
M205 S0 T0 ; sets the minimum extruding and travel feed rate, mm/sec
M107
;TYPE:Custom
M862.3 P "MK3S" ; printer model check
M862.1 P0.4 ; nozzle diameter check
M115 U3.9.2 ; tell printer latest fw version
G90 ; use absolute coordinates
M83 ; extruder relative mode
M104 S215 ; set extruder temp
M140 S60 ; set bed temp
M190 S60 ; wait for bed temp
M109 S215 ; wait for extruder temp
G28 W ; home all without mesh bed level
G80 ; mesh bed leveling
G1 Y-3.0 F1000.0 ; go outside print area
G92 E0.0
G1 X60.0 E9.0 F1000.0 ; intro line
G1 X100.0 E12.5 F1000.0 ; intro line
G92 E0.0
M221 S95

; Don't change E values below. Excessive value can damage the printer.
M907 E430 ; set extruder motor current
G21 ; set units to millimeters
G90 ; use absolute coordinates
M83 ; use relative distances for extrusion
M900 K0.05 ; Filament gcode LA 1.5
M900 K30 ; Filament gcode LA 1.0
;LAYER_CHANGE
;Z:0.2
;HEIGHT:0.2
;BEFORE_LAYER_CHANGE
G92 E0.0
;0.2


G1 E-0.80000 F2100.000
G1 Z0.400 F10800.000
;AFTER_LAYER_CHANGE
;0.2
G1 X100.763 Y86.581
G1 Z0.200
G1 E0.80000 F2100.000
M204 S1000
;TYPE:Skirt
;WIDTH:0.42
G1 F1200.000
G1 X101.553 Y86.447 E0.02513
G1 X143.416 Y84.609 E1.31383
G1 X144.300 Y84.780 E0.02825
G1 X145.060 Y85.271 E0.02837
G1 X145.582 Y86.011 E0.02837
G1 X145.789 Y86.888 E0.02825
G1 X145.799 Y118.843 E1.00192
G1 X145.727 Y119.362 E0.01645
G1 X145.543 Y119.853 E0.01645
G1 X145.257 Y120.289 E0.01633
G1 X144.881 Y120.655 E0.01645
G1 X144.165 Y121.036 E0.02543
G1 X143.359 Y121.154 E0.02555
G1 X101.575 Y119.527 E1.31109
G1 X101.002 Y119.458 E0.01810
G1 X100.497 Y119.281 E0.01680
G1 X100.038 Y118.989 E0.01704
G1 X99.655 Y118.598 E0.01716
G1 X99.291 Y117.933 E0.02378
G1 X99.156 Y117.182 E0.02390
G1 X99.154 Y88.800 E0.88990
G1 X99.220 Y88.272 E0.01668
G1 X99.403 Y87.772 E0.01668
G1 X99.691 Y87.325 E0.01668
G1 X100.072 Y86.954 E0.01668
G1 X100.710 Y86.609 E0.02273
;WIPE_START
G1 F8640.000
G1 X101.553 Y86.447 E-0.19826
G1 X103.984 Y86.340 E-0.56174
;WIPE_END
G1 E-0.04000 F2100.000
G1 Z0.600 F10800.000
G1 X140.604 Y110.656
G1 Z0.200
G1 E0.80000 F2100.000
;TYPE:Support material
G1 F1200.000
G1 X140.604 Y95.275 E0.48228
G1 X139.849 Y95.275 E0.02365
G1 X139.849 Y110.487 E0.47696
G1 X139.095 Y110.487 E0.02365
G1 X139.095 Y95.275 E0.47696
G1 X138.341 Y95.275 E0.02365
G1 X138.341 Y110.487 E0.47696
G1 X137.587 Y110.487 E0.02365
G1 X137.587 Y95.275 E0.47696
G1 X136.833 Y95.275 E0.02365
G1 X136.833 Y110.487 E0.47696
G1 X136.079 Y110.487 E0.02365
G1 X136.079 Y95.275 E0.47696
G1 X135.325 Y95.275 E0.02365
G1 X135.325 Y110.487 E0.47696
G1 X134.570 Y110.487 E0.02365
G1 X134.570 Y95.275 E0.47696
G1 X133.816 Y95.275 E0.02365
G1 X133.816 Y110.487 E0.47696
G1 X133.062 Y110.487 E0.02365
G1 X133.062 Y95.275 E0.47696
G1 X132.308 Y95.275 E0.02365
G1 X132.308 Y110.487 E0.47696
G1 X131.554 Y110.487 E0.02365
G1 X131.554 Y95.275 E0.47696
G1 X130.800 Y95.275 E0.02365
G1 X130.800 Y110.487 E0.47696
M73 P1 R45
M73 Q1 S45
G1 X130.045 Y110.487 E0.02365
G1 X130.045 Y95.275 E0.47696
G1 X129.291 Y95.275 E0.02365
G1 X129.291 Y110.487 E0.47696
G1 X128.537 Y110.487 E0.02365
G1 X128.537 Y95.275 E0.47696
G1 X127.783 Y95.275 E0.02365
G1 X127.783 Y110.487 E0.47696
M73 P1 R44
G1 X127.029 Y110.487 E0.02365
G1 X127.029 Y95.105 E0.48228
;WIPE_START
G1 F8640.000
G1 X127.029 Y98.397 E-0.76000
;WIPE_END
G1 E-0.04000 F2100.000
G1 Z0.600 F10800.000
G1 X142.156 Y88.065
G1 Z0.200
G1 E0.80000 F2100.000
;TYPE:Perimeter
G1 F1200.000
G1 X142.160 Y117.727 E0.93005
G1 X102.341 Y116.116 E1.24951
G1 X102.341 Y89.851 E0.82352
G1 X142.096 Y88.067 E1.24775
G1 X141.779 Y88.459 F10800.000
;TYPE:External perimeter
G1 F1200.000
G1 X141.782 Y117.334 E0.90537
G1 X102.718 Y115.754 E1.22584
G1 X102.718 Y90.211 E0.80086
M73 Q1 S44
G1 X141.719 Y88.462 E1.22408
G1 X142.171 Y88.378 F10800.000
;WIPE_START
G1 F8640.000
G1 X141.726 Y91.753 E-0.76000
;WIPE_END
G1 E-0.04000 F2100.000
G1 Z0.600 F10800.000
G1 X142.627 Y87.808
G1 Z0.200
G1 E0.80000 F2100.000
;TYPE:Perimeter
G1 F1200.000
G1 X142.636 Y117.960 E0.94538
G1 X102.320 Y116.390 E1.26502
G1 X102.318 Y89.581 E0.84058
G1 X142.567 Y87.811 E1.26319
G1 X143.004 Y87.414 F10800.000
;TYPE:External perimeter
G1 F1200.000
G1 X143.013 Y118.352 E0.97002
M73 P2 R44
M73 Q2 S44
G1 X101.943 Y116.752 E1.28869
G1 X101.941 Y89.220 E0.86327
G1 X142.944 Y87.417 E1.28685
G1 X142.879 Y87.794 F10800.000
;WIPE_START
G1 F8640.000
G1 X142.951 Y90.708 E-0.76000
;WIPE_END
G1 E-0.04000 F2100.000
G1 Z0.600 F10800.000
G1 X142.398 Y117.762
G1 Z0.200
G1 E0.80000 F2100.000
;TYPE:Gap fill
;WIDTH:0.141834
G1 F1200.000
G1 X142.391 Y88.007 E0.24472
M106 S84.15
;LAYER_CHANGE
;Z:0.35
;HEIGHT:0.15
;BEFORE_LAYER_CHANGE
G92 E0.0
;0.35


;WIPE_START
G1 F8640.000
G1 X142.392 Y91.299 E-0.76000
;WIPE_END
G1 E-0.04000 F2100.000
G1 Z0.600 F10800.000
;AFTER_LAYER_CHANGE
;0.35
G1 X145.582 Y86.011
G1 Z0.350
G1 E0.80000 F2100.000
;TYPE:Skirt
;WIDTH:0.42
G1 F3000.000
G1 X145.789 Y86.888 E0.02179
G1 X145.799 Y118.843 E0.77282
G1 X145.727 Y119.362 E0.01269
G1 X145.543 Y119.853 E0.01269
G1 X145.257 Y120.289 E0.01260
G1 X144.881 Y120.655 E0.01269
G1 X144.165 Y121.036 E0.01962
G1 X143.359 Y121.154 E0.01971
G1 X101.575 Y119.527 E1.01130
G1 X101.002 Y119.458 E0.01396
G1 X100.497 Y119.281 E0.01296
G1 X100.038 Y118.989 E0.01314
G1 X99.655 Y118.598 E0.01324
G1 X99.291 Y117.933 E0.01835
G1 X99.156 Y117.182 E0.01844
G1 X99.154 Y88.800 E0.68642
G1 X99.220 Y88.272 E0.01287
G1 X99.403 Y87.772 E0.01287
G1 X99.691 Y87.325 E0.01287
G1 X100.072 Y86.954 E0.01287
G1 X100.763 Y86.581 E0.01898
G1 X101.553 Y86.447 E0.01939
G1 X143.416 Y84.609 E1.01341
G1 X144.300 Y84.780 E0.02179
G1 X145.060 Y85.271 E0.02188
G1 X145.547 Y85.962 E0.02043
;WIPE_START
G1 F8640.000
G1 X145.789 Y86.888 E-0.22097
G1 X145.789 Y89.222 E-0.53903
;WIPE_END
G1 E-0.04000 F2100.000
G1 Z0.750 F10800.000
G1 X141.852 Y88.341
G1 Z0.350
G1 E0.80000 F2100.000
M204 S800
;TYPE:Perimeter
;WIDTH:0.45
G1 F2700.000
G1 X141.856 Y117.470 E0.75896
G1 X140.793 Y117.392 E0.02778
G1 X102.552 Y115.856 E0.99720
G1 X102.553 Y90.117 E0.67065
G1 X103.547 Y90.054 E0.02598
G1 X141.792 Y88.344 E0.99749
M204 S1000
;WIPE_START
G1 F8640.000
G1 X141.799 Y91.635 E-0.76000
;WIPE_END
G1 E-0.04000 F2100.000
G1 Z0.750 F10800.000
G1 X102.970 Y115.455
G1 Z0.350
G1 E0.80000 F2100.000
M204 S800
;TYPE:External perimeter
G1 F1500.000
G1 X102.970 Y90.509 E0.64997
G1 X141.434 Y88.778 E1.00322
G1 X141.438 Y117.020 E0.73587
G1 X140.817 Y116.975 E0.01625
G1 X103.030 Y115.457 E0.98535
M204 S1000
G1 X102.570 Y115.449 F10800.000
;WIPE_START
G1 F8640.000
G1 X103.022 Y112.166 E-0.76000
;WIPE_END
G1 E-0.04000 F2100.000
G1 Z0.750 F10800.000
G1 X102.242 Y116.416
G1 Z0.350
G1 E0.80000 F2100.000
M204 S800
;TYPE:Perimeter
G1 F2700.000
G1 X102.240 Y89.566 E0.69958
G1 X142.611 Y87.783 E1.05290
G1 X142.619 Y117.988 E0.78702
G1 X102.302 Y116.418 E1.05129
M204 S1000
G1 X101.824 Y116.810 F10800.000
M204 S800
;TYPE:External perimeter
G1 F1500.000
G1 X101.822 Y89.167 E0.72028
G1 X143.028 Y87.346 E1.07469
M73 P3 R44
M73 Q3 S44
G1 X143.036 Y118.422 E0.80972
G1 X101.884 Y116.815 E1.07309
M204 S1000
G1 X101.948 Y116.430 F10800.000
G1 X102.450 Y116.138
;TYPE:Gap fill
;WIDTH:0.129017
G1 F2400.000
G1 X140.778 Y117.654 E0.23162
G1 X142.063 Y117.726 E0.00777
G1 X142.236 Y117.646 E0.00115
;WIDTH:0.162982
G1 X142.409 Y117.565 E0.00156
G1 X142.237 Y117.764 F10800.000
;WIDTH:0.376428
G1 F2400.000
G1 X142.231 Y88.009 E0.63878
G1 X142.402 Y88.230 F10800.000
;WIDTH:0.25522
G1 F2400.000
G1 X142.287 Y88.177 E0.00176
;WIDTH:0.216413
G1 X142.173 Y88.123 E0.00145
;WIDTH:0.177607
G1 X142.059 Y88.070 E0.00115
;WIDTH:0.158969
G1 X102.449 Y89.840 E0.31348
;LAYER_CHANGE
;Z:0.449482
;HEIGHT:0.0994819
;BEFORE_LAYER_CHANGE
G92 E0.0
;0.449482


;WIPE_START
G1 F8640.000
G1 X105.737 Y89.693 E-0.76000
;WIPE_END
G1 E-0.04000 F2100.000
G1 Z0.750 F10800.000
;AFTER_LAYER_CHANGE
;0.449482
G1 X138.872 Y98.245
G1 Z0.449
G1 E0.80000 F2100.000
;TYPE:Support material
;WIDTH:0.35
;HEIGHT:0.249482
G1 F900
G1 X129.457 Y98.245 E0.28949
G1 X129.457 Y100.563 E0.07127
G1 X138.728 Y100.563 E0.28509
G1 X138.728 Y102.881 E0.07127
G1 X129.457 Y102.881 E0.28509
M73 P3 R43
G1 X129.457 Y105.199 E0.07127
G1 X138.728 Y105.199 E0.28509
G1 X138.728 Y107.516 E0.07127
G1 X129.314 Y107.516 E0.28949
M106 S170.85
;LAYER_CHANGE
;Z:0.5
;HEIGHT:0.0505181
;BEFORE_LAYER_CHANGE
G92 E0.0
;0.5


;WIPE_START
G1 F8640.000
G1 X132.606 Y107.516 E-0.76000
;WIPE_END
G1 E-0.04000 F2100.000
G1 Z0.849 F10800.000
;AFTER_LAYER_CHANGE
;0.5
G1 X145.582 Y86.011
G1 Z0.500
G1 E0.80000 F2100.000
;TYPE:Skirt
;WIDTH:0.42
;HEIGHT:0.15
G1 F3000.000
G1 X145.789 Y86.888 E0.02179
G1 X145.799 Y118.843 E0.77282
G1 X145.727 Y119.362 E0.01269
G1 X145.543 Y119.853 E0.01269
G1 X145.257 Y120.289 E0.01260
G1 X144.881 Y120.655 E0.01269
G1 X144.165 Y121.036 E0.01962
G1 X143.359 Y121.154 E0.01971
G1 X101.575 Y119.527 E1.01130
G1 X101.002 Y119.458 E0.01396
G1 X100.497 Y119.281 E0.01296
G1 X100.038 Y118.989 E0.01314
G1 X99.655 Y118.598 E0.01324
G1 X99.291 Y117.933 E0.01835
G1 X99.156 Y117.182 E0.01844
G1 X99.154 Y88.800 E0.68642
G1 X99.220 Y88.272 E0.01287
G1 X99.403 Y87.772 E0.01287
G1 X99.691 Y87.325 E0.01287
G1 X100.072 Y86.954 E0.01287
G1 X100.763 Y86.581 E0.01898
G1 X101.553 Y86.447 E0.01939
G1 X143.416 Y84.609 E1.01341
G1 X144.300 Y84.780 E0.02179
G1 X145.060 Y85.271 E0.02188
G1 X145.547 Y85.962 E0.02043
;WIPE_START
G1 F8640.000
G1 X145.789 Y86.888 E-0.22097
G1 X145.789 Y89.222 E-0.53903
;WIPE_END
G1 E-0.04000 F2100.000
G1 Z0.900 F10800.000
G1 X141.715 Y88.449
G1 Z0.500
G1 E0.80000 F2100.000
M204 S800
;TYPE:Perimeter
;WIDTH:0.45
G1 F2700.000
G1 X141.719 Y117.365 E0.75342
G1 X140.446 Y117.272 E0.03326
G1 X102.610 Y115.752 E0.98666
G1 X102.610 Y90.220 E0.66524
G1 X103.816 Y90.144 E0.03148
G1 X141.655 Y88.452 E0.98692
M204 S1000
;WIPE_START
G1 F8640.000
G1 X141.663 Y91.744 E-0.76000
;WIPE_END
G1 E-0.04000 F2100.000
G1 Z0.900 F10800.000
G1 X103.027 Y115.351
G1 Z0.500
G1 E0.80000 F2100.000
M204 S800
;TYPE:External perimeter
G1 F1500.000
G1 X103.028 Y90.613 E0.64457
G1 X103.839 Y90.561 E0.02117
G1 X141.298 Y88.886 E0.97699
M73 Q3 S43
G1 X141.301 Y116.915 E0.73032
G1 X140.470 Y116.855 E0.02172
G1 X103.087 Y115.353 E0.97481
M204 S1000
G1 X102.627 Y115.345 F10800.000
;WIPE_START
G1 F8640.000
G1 X103.079 Y112.062 E-0.76000
;WIPE_END
G1 E-0.04000 F2100.000
G1 Z0.900 F10800.000
G1 X102.298 Y116.318
G1 Z0.500
G1 E0.80000 F2100.000
M204 S800
;TYPE:Perimeter
G1 F2700.000
G1 X102.297 Y89.657 E0.69467
G1 X142.473 Y87.890 E1.04782
G1 X142.480 Y117.884 E0.78151
M73 Q4 S43
G1 X102.358 Y116.322 E1.04621
M204 S1000
M73 P4 R43
G1 X101.880 Y116.706 F10800.000
M204 S800
;TYPE:External perimeter
G1 F1500.000
G1 X101.879 Y89.266 E0.71497
G1 X142.891 Y87.454 E1.06962
G1 X142.898 Y118.318 E0.80421
G1 X102.307 Y116.738 E1.05844
G1 X101.940 Y116.710 E0.00959
M204 S1000
G1 X102.085 Y116.362 F10800.000
G1 X102.507 Y116.038
;TYPE:Gap fill
;WIDTH:0.13034
G1 F2400.000
G1 X140.431 Y117.538 E0.23231
G1 X141.926 Y117.621 E0.00916
G1 X142.099 Y117.541 E0.00117
;WIDTH:0.16477
G1 X142.271 Y117.461 E0.00157
G1 X142.100 Y117.660 F10800.000
;WIDTH:0.375558
G1 F2400.000
G1 X142.094 Y88.116 E0.63264
G1 X142.264 Y88.337 F10800.000
;WIDTH:0.25708
G1 F2400.000
G1 X142.150 Y88.284 E0.00177
;WIDTH:0.217957
G1 X142.036 Y88.231 E0.00146
;WIDTH:0.178834
G1 X141.922 Y88.177 E0.00115
G1 X102.506 Y89.937 E0.36082
M106 S255
;LAYER_CHANGE
;Z:0.65
;HEIGHT:0.15
;BEFORE_LAYER_CHANGE
G92 E0.0
;0.65


;WIPE_START
G1 F8640.000
G1 X105.794 Y89.790 E-0.76000
;WIPE_END
G1 E-0.04000 F2100.000
G1 Z0.900 F10800.000
;AFTER_LAYER_CHANGE
;0.65
G1 X141.579 Y88.557
G1 Z0.650
G1 E0.80000 F2100.000
M204 S800
;TYPE:Perimeter
;WIDTH:0.45
G1 F2700.000
G1 X141.582 Y117.260 E0.74787
G1 X140.099 Y117.151 E0.03873
G1 X102.667 Y115.648 E0.97611
G1 X102.668 Y90.324 E0.65984
G1 X104.085 Y90.234 E0.03699
G1 X141.519 Y88.560 E0.97634
M204 S1000
;WIPE_START
G1 F8640.000
G1 X141.526 Y91.852 E-0.76000
;WIPE_END
G1 E-0.04000 F2100.000
G1 Z1.050 F10800.000
G1 X103.085 Y115.247
G1 Z0.650
G1 E0.80000 F2100.000
M204 S800
;TYPE:External perimeter
G1 F1500.000
G1 X103.086 Y90.716 E0.63917
G1 X104.107 Y90.651 E0.02668
G1 X141.161 Y88.994 E0.96642
G1 X141.164 Y116.810 E0.72477
G1 X140.123 Y116.734 E0.02720
G1 X103.145 Y115.249 E0.96427
M204 S1000
G1 X102.685 Y115.241 F10800.000
;WIPE_START
G1 F8640.000
G1 X103.137 Y111.958 E-0.76000
;WIPE_END
G1 E-0.04000 F2100.000
G1 Z1.050 F10800.000
G1 X102.355 Y116.213
G1 Z0.650
G1 E0.80000 F2100.000
M204 S800
;TYPE:Perimeter
G1 F2700.000
G1 X102.354 Y89.761 E0.68924
G1 X142.336 Y87.997 E1.04275
G1 X142.342 Y117.780 E0.77600
G1 X102.415 Y116.218 E1.04114
M204 S1000
G1 X101.937 Y116.601 F10800.000
M204 S800
;TYPE:External perimeter
G1 F1500.000
G1 X101.937 Y89.370 E0.70954
G1 X102.589 Y89.327 E0.01703
G1 X142.753 Y87.561 E1.04753
G1 X142.760 Y118.214 E0.79870
G1 X102.589 Y116.650 E1.04748
M73 P5 R43
M73 Q5 S43
G1 X101.997 Y116.606 E0.01548
M204 S1000
G1 X102.141 Y116.258 F10800.000
G1 X102.566 Y116.020
;TYPE:Gap fill
;WIDTH:0.131663
G1 F2400.000
G1 X102.648 Y115.941 E0.00071
G1 X140.084 Y117.421 E0.23241
G1 X141.788 Y117.517 E0.01059
G1 X141.961 Y117.437 E0.00118
;WIDTH:0.166556
G1 X142.133 Y117.357 E0.00159
G1 X141.962 Y117.556 F10800.000
;WIDTH:0.374693
G1 F2400.000
G1 X141.957 Y88.223 E0.62653
G1 X142.127 Y88.445 F10800.000
;WIDTH:0.258444
G1 F2400.000
G1 X142.013 Y88.391 E0.00177
;WIDTH:0.219083
G1 X141.899 Y88.338 E0.00147
;WIDTH:0.179721
G1 X141.785 Y88.285 E0.00116
G1 X104.071 Y89.957 E0.34733
G1 X102.645 Y90.034 E0.01313
G1 X102.564 Y89.957 E0.00103
M106 S170.85
;LAYER_CHANGE
;Z:0.698964
;HEIGHT:0.0489639
;BEFORE_LAYER_CHANGE
G92 E0.0
;0.698964


;WIPE_START
G1 F8640.000
G1 X102.645 Y90.034 E-0.02578
G1 X104.071 Y89.957 E-0.32962
G1 X105.821 Y89.880 E-0.40461
;WIPE_END
G1 E-0.04000 F2100.000
G1 Z1.050 F10800.000
;AFTER_LAYER_CHANGE
;0.698964
G1 X138.872 Y98.245
G1 Z0.699
G1 E0.80000 F2100.000
;TYPE:Support material
;WIDTH:0.35
;HEIGHT:0.249482
G1 F900
G1 X129.457 Y98.245 E0.28949
G1 X129.457 Y100.563 E0.07127
G1 X138.728 Y100.563 E0.28509
G1 X138.728 Y102.881 E0.07127
G1 X129.457 Y102.881 E0.28509
G1 X129.457 Y105.199 E0.07127
G1 X138.728 Y105.199 E0.28509
G1 X138.728 Y107.516 E0.07127
G1 X129.314 Y107.516 E0.28949
M106 S255
;LAYER_CHANGE
;Z:0.8
;HEIGHT:0.101036
;BEFORE_LAYER_CHANGE
G92 E0.0
;0.8


;WIPE_START
G1 F8640.000
G1 X132.606 Y107.516 E-0.76000
;WIPE_END
G1 E-0.04000 F2100.000
G1 Z1.099 F10800.000
;AFTER_LAYER_CHANGE
;0.8
G1 X141.442 Y88.665
G1 Z0.800
G1 E0.80000 F2100.000
M204 S800
;TYPE:Perimeter
;WIDTH:0.45
;HEIGHT:0.15
G1 F2700.000
G1 X141.445 Y117.155 E0.74232
G1 X139.753 Y117.031 E0.04421
G1 X102.724 Y115.544 E0.96557
G1 X102.726 Y90.427 E0.65444
G1 X104.354 Y90.323 E0.04250
G1 X141.382 Y88.668 E0.96577
M204 S1000
;WIPE_START
G1 F8640.000
G1 X141.389 Y91.960 E-0.76000
;WIPE_END
G1 E-0.04000 F2100.000
G1 Z1.200 F10800.000
G1 X103.142 Y115.143
G1 Z0.800
G1 E0.80000 F2100.000
M204 S800
;TYPE:External perimeter
G1 F1500.000
G1 X103.143 Y90.819 E0.63377
G1 X104.376 Y90.741 E0.03219
G1 X141.024 Y89.102 E0.95584
M73 P5 R42
G1 X141.027 Y116.706 E0.71922
G1 X139.776 Y116.614 E0.03267
G1 X103.202 Y115.145 E0.95373
M204 S1000
G1 X102.742 Y115.137 F10800.000
;WIPE_START
G1 F8640.000
G1 X103.194 Y111.854 E-0.76000
;WIPE_END
G1 E-0.04000 F2100.000
G1 Z1.200 F10800.000
G1 X102.411 Y116.109
G1 Z0.800
G1 E0.80000 F2100.000
M204 S800
;TYPE:Perimeter
G1 F2700.000
G1 X102.411 Y89.865 E0.68382
G1 X142.198 Y88.105 E1.03769
